X:30
T:Disappointment.
T:John Malchair's Third Collection of Tunes
%%VWML:Malchair-3619-p30
F:https://www.vwml.org/record/Malchair/3619/p30
F:www.vwml.org/topics/historic-dance-and-tune-books/Malchair
Z:Eric Conrad Jan 2020
M:C|
L:1/8
K:Gm
P:A
B2G2 B2d2 | cBAG ^F2d2 | cBAG ^F2B2 | AG^F=E D4 |
B2G2 d2g2 | fedc B2b2 | agf=e d2^f2 | g8 ||
P:B
B2d2 B2f2 | edcB A2e2 | dcBA G2d2 | cBAG ^F2d2 |
g2d2 g2b2 | ag^f=e d2g_f | edcB A3G | G8 |]
W:
T:Marlborough's Victory.
T:John Malchair's Third Collection of Tunes
F:https://www.vwml.org/record/Malchair/3619/p30
F:www.vwml.org/topics/historic-dance-and-tune-books/Malchair
% Z:Eric Conrad Jan 2020
M:C
L:1/8
K:D
A2 | d2dd dddd | d6 cB | AGFG AGFG | G4 D2de |
f2ff ffff | f6 gf | edcd edcd | e6 A2 |
d2df e2ef | d2df e2g^f | fedc B3A | A6 ||
E2 | A2AA AAAA | A6 A2 | dcde d2A2 | d6 e2 |
ffff eeee | ffff eeee | f^gfg =g3(f/g/) | a6 ag |
fedc B2gf | edcB A2dc | BAGF E2B2 | e6 ef |
g2fe f2d2 | efed c2BA | d2ef B2c2 | d6 |]


